X: 1
T:Needlecase
Z:Nigel Gatherer
M:2/4
L:1/8
K:D
ag f/e/d|Bg Bg|ag f/e/d|B/A/B/c/ d2|ag f/e/d|Bg Bg|
Ac e/c/B/A/|Bc d2::DF Ad|BB/A/ Bd|DF Ad|
B/A/B/c/ d2|DF Ad|BB/A/ Bd|Ac e/c/B/A/|Bc d2:|]
